X: 18597
T: I Think It's Thursday
R: reel
M: 4/4
K: Amajor
cB|:AFFE F2 EF|ABcA B2 cB|Affe f2 ec|ABBA B2 cB|
AFFE F2 EF|ABcA B2 cB|Affe f2 ec|1 ABBA B2 cB:|2 ABBA BEFA||
|:Bffe f2 ec|Bffe f2 ef|a2 fe a2 fe|cfec BAFA|
Bffe f2 ec|Bffe f2 ef|a2 fe a2 fe|1 cfec B2 BA:|2 cfec B2 cB||

